app/themes/uggwc_pro/assets/images/thema/Mathematik.svg

<svg width="16" height="16" viewBox="0 0 16 16" fill="none" xmlns="http://www.w3.org/2000/svg">
<g clip-path="url(#clip0_111_173)">
<path d="M8.02778 1.67222C8.125 1.27778 8.48055 1 8.88889 1H15.1111C15.6028 1 16 1.39722 16 1.88889C16 2.38056 15.6028 2.77778 15.1111 2.77778H9.58333L6.63889 14.55C6.55 14.9111 6.24444 15.1778 5.87222 15.2167C5.5 15.2556 5.14722 15.0639 4.98056 14.7306L2.11667 9H0.888889C0.397222 9 0 8.60278 0 8.11111C0 7.61944 0.397222 7.22222 0.888889 7.22222H2.66667C3.00278 7.22222 3.31111 7.41111 3.46111 7.71389L5.49722 11.7861L8.02778 1.67222ZM10.9278 7.48333C11.275 7.13611 11.8389 7.13611 12.1861 7.48333L13.3333 8.63056L14.4833 7.48056C14.8306 7.13333 15.3944 7.13333 15.7417 7.48056C16.0889 7.82778 16.0889 8.39167 15.7417 8.73889L14.5917 9.88889L15.7417 11.0389C16.0889 11.3861 16.0889 11.95 15.7417 12.2972C15.3944 12.6444 14.8306 12.6444 14.4833 12.2972L13.3333 11.1472L12.1833 12.2972C11.8361 12.6444 11.2722 12.6444 10.925 12.2972C10.5778 11.95 10.5778 11.3861 10.925 11.0389L12.075 9.88889L10.925 8.73889C10.5778 8.39167 10.5778 7.82778 10.925 7.48056L10.9278 7.48333Z" fill="#6E6CFF"/>
</g>
<defs>
<clipPath id="clip0_111_173">
<rect width="16" height="16" fill="white"/>
</clipPath>
</defs>
</svg>

<svg width="16" height="16" fill="none" xmlns="http://www.w3.org/2000/svg"><g clip-path="url(#a)"><path d="M8.028 1.672A.886.886 0 0 1 8.888 1h6.223a.888.888 0 1 1 0 1.778H9.583L6.64 14.55a.882.882 0 0 1-.767.667.888.888 0 0 1-.891-.486L2.117 9H.889a.888.888 0 1 1 0-1.778h1.778c.336 0 .644.19.794.492l2.036 4.072 2.53-10.114zm2.9 5.811a.89.89 0 0 1 1.258 0l1.147 1.148 1.15-1.15a.89.89 0 0 1 1.259 1.258l-1.15 1.15 1.15 1.15a.89.89 0 0 1-1.259 1.258l-1.15-1.15-1.15 1.15a.89.89 0 0 1-1.258-1.258l1.15-1.15-1.15-1.15a.89.89 0 0 1 0-1.258l.003.002z" fill="#6E6CFF"/></g><defs><clipPath id="a"><path fill="#fff" d="M0 0h16v16H0z"/></clipPath></defs></svg>
